X:1
T:The Precious Blood of Jesus
T:The Precious Blood of Jesus
T:Melvin J. HIll
T:Howard Eckel, 1908
T:Public Domain Courtesy of the Cyber Hymnal™
T:Public Domain Courtesy of the Cyber Hymnal™
C:Melvin J. HIll
Z:Public Domain
Z:Courtesy of the Cyber Hymnal™
%%score ( 1 2 ) ( 3 4 )
L:1/8
Q:1/4=73
M:4/4
K:F
V:1 treble 
V:2 treble 
V:3 bass 
V:4 bass 
V:1
 A2 A2 (3:2:1[CA] A2 A2 x/12 | c2 c2 E4 | B2 B2 (3:2:1[CB] B2 B2 x/12 | d2 d2 A4 | %4
w: 1.~Com- plete in Him, I|dare to say,|“The blood has washed all|sin a- way”;|
w: 2.~If there’s a heart that|is im- pure,|Ap- ply the blood with-|out de- lay,|
w: 3.~The prom- ise is to|you and yours,|And all that now are|far a- way|
w: 4.~Who- ev- er will may|come, though dead,|The Spir- it and the|Bride hath said,|
 A2 A2 (3:2:1[CA] A2 A2 x/12 | c2 _e2 d4 d2 | e2 (3:2:1[Be] e2 (3:2:1[Be] f2 B2 x/24 | %7
w: I’ll praise Him while on|earth I stay, And|shout thro’ Heav’n’s e- ter- nal|
w: And you will find the|prom- ise sure, The|blood of Christ will cleanse to-|
w: Will find the blood that|al- ways cures, If|you Je- ho- vah’s call o-|
w: “Let him that hear- eth,|tell it ’round,” A-|bun- dant life in Christ is|
 A2 G2 !fermata![A,CF]2 ||"^Refrain" C2 (3:2:2([A,C][A,C]) x/24 | %9
w: day. * *||
w: day. * *||
w: bey. The pre-|cious blood *|
w: found. * *||
 F2 (3:2:2([A,CF][A,CF]) F2 (3:2:1[A,CF] z2/3 A2 (3:2:2([CFA][CFA]) c2 (3:2:2([FAc][FAc]) x/24 | %10
w: |
w: |
w: * of * Je- sus Has cleansed * my heart *|
w: |
 c2 (3:2:2([EGc][EGc]) E4 (3:2:2([G,B,E][G,B,E](3[G,B,E][G,B,E][G,B,E]) C2 (3:2:2([G,B,C][G,B,C]) | %11
w: |
w: |
w: * from * sin. The * * * * pre- cious *|
w: |
 B2 (3:2:2([CB][CB]) B2 (3:2:1[EB] z2/3 B2 (3:2:2([GB][GB]) B2 (3:2:2([EB][EB]) x/24 | %12
w: |
w: |
w: * blood * of Je- sus Has * made me *|
w: |
 A4 (3:2:2([CFA][CFA](3[CFA][CFA][CFA] A2) (3:2:2([CFA][CFA]) C2 (3:2:2([A,C][A,C]) | %13
w: |
w: |
w: * pure * * * * * with- * in. * *|
w: |
 A2 (3:2:2([CFA][CFA]) A2 (3:2:1[CFA] z2/3 c2 (3:2:2([FAc][FAc]) _e2 (3:2:2([Ace][Ace]) x/24 | %14
w: |
w: |
w: |
w: |
 d2 (3:2:2([FBd][FBd]) d4 (3:2:2([FBd][FBd](3[FBd][FBd][FBd]) f2 (3:2:2([FBdf][FBdf]) | %15
w: |
w: |
w: |
w: |
 f2 (3:2:2([Acf][Acf]) d2 (3:2:1[GBd] z2/3 [FA]2 [B,EG]2 x/12 | [A,CF]6 z2 |] %17
w: ||
w: ||
w: ||
w: ||
V:2
 (3(AFC) (3:2:2(AF(3A)(FC) (3:2:1(A x2/3 (3:2:1C) x17/12 | (3(cAF) (3(cAF) (3(EB,G,(3EB,G,) | %2
 (3(BEC) (3:2:2(BE(3B)(EC) (3:2:1(B x2/3 (3:2:1C) x17/12 | (3(dAF) (3(dAF) (3(AFC(3AFC) | %4
 (3(AFC) (3:2:2(AF)(3(AFC) (3:2:1(A x2/3 (3:2:1C) x17/12 | (3(cAF) (3(_ecA) (3(dBF(3dBF) x2 | %6
 (3:2:2(ec(3:2:2ec)(3:2:2fc x2/3 (3(BGD) x65/24 | (3(AFC) (3(GEB,) x2 || (3:2:1A, x65/24 | %9
 (3:2:1[A,CF] (3:2:1[A,CF] (3:2:1[CF] (3:2:1[FA] x257/24 | %10
 (3:2:1[EGc] (3:2:1[G,B,] (3:2:1[G,B,] x12 | (3:2:1C (3:2:1[EB] (3:2:1G (3:2:1[EB] x257/24 | %12
 (3:2:1[CF] (3:2:1[CF] (3:2:1A, x12 | (3:2:1[CF] (3:2:1[CF] (3:2:1[FA] (3:2:1[Ac] x257/24 | %14
 (3:2:1[FB] (3:2:1[FB] (3:2:1[FBd] x12 | (3:2:1[Ac] (3:2:1[GB] x113/12 | x8 |] %17
V:3
 F,2 C,2 F,2 C,2 x3/4 | A,2 F,2 (G,2 C,2) | [E,,E,]2 [C,,C,]2 [G,,G,]2 [C,,C,]2 x3/4 | %3
 F,2 C,2 (F,2 C,2) | F,2 C,2 F,2 C,2 x3/4 | [A,,A,]2 [F,,F,]2 (B,2 F,2) x2 | %6
 [B,,B,]2 [G,,G,]2 [A,,A,]2 [B,,B,]2 x11/8 | [C,C]2 [C,,C,]2 !fermata![F,,F,]2 || z2 x11/8 | %9
 F,2 C,2 F,2 C,2 x43/8 | [G,,G,]2 (C,2 G,2) [C,G,]2 x6 | %11
 [E,,E,]2 [C,,C,]2 [E,,E,]2 [C,,C,]2 x43/8 | [F,,F,]2 [A,,A,]2 [D,,D,]2 [C,,C,]2 x6 | %13
 F,2 C,2 [A,,A,]2 [F,,F,]2 x43/8 | [B,,B,]2 [F,,F,]2 [D,,D,]2 [B,,D,]2 x6 | %15
 [F,,F,]2 [G,,G,]2 [C,C]2 [C,,C,]2 x11/4 | [F,,F,]6 z2 |] %17
V:4
 F,,4 F,,4 x3/4 | F,,4 G,,4 | x35/4 | F,,4 F,,4 | F,,4 F,,4 x3/4 | x4 B,,4 x2 | x75/8 | x6 || %8
 x27/8 | F,,4 F,,4 x43/8 | x2 G,,4 x8 | x107/8 | x14 | F,,4 x75/8 | x14 | x43/4 | x8 |] %17

